X: 3363
T: The TIDE COME IN
%R: hornpipe, reel
B: James Kerr "Merry Melodies" v.3 p.40 #363
Z: 2016 John Chambers <jc:trillian.mit.edu>
M: C
L: 1/8
K: Gm
(dc) |\
BAG^F GABc | B2G2 G2(bg) |\
fedc Bced | (3cdB (3ABG F2(dc) |\
BAG^F GABc | dg^fa g2(g=f) |\
edcB ceAc | B2G2G2 :|
|: (^fg) |\
bgdB gdBG | DGBd gdbg |\
afcA fcAF | CFAc BAG^F |\
G^FGA GABc | dg^fa g2(g=f) |\
edcB ceAc | B2G2G2 :|

%%sep 1 1 500
%%sep 1 1 500

